build/img/icons/mobile-icon.svg

<svg width="36" height="36" viewBox="0 0 36 36" fill="none" xmlns="http://www.w3.org/2000/svg">
<path d="M23.4798 29.4651C25.4573 29.4651 26.802 28.9001 28.0225 27.578C28.1016 27.4876 28.1807 27.3859 28.2598 27.2955C28.9265 26.5497 29.2542 25.77 29.2542 25.0467C29.2542 24.1992 28.8022 23.4308 27.7965 22.7415L24.429 20.391C23.3668 19.6565 22.135 19.6 21.1858 20.5492L20.3496 21.3855C20.0558 21.6793 19.7733 21.7019 19.4343 21.4646C18.8241 21.0578 17.6715 20.0407 16.8804 19.2497C16.0781 18.4474 15.2645 17.5434 14.8238 16.8541C14.5865 16.5038 14.6091 16.2326 14.9029 15.9388L15.7391 15.1025C16.6883 14.1533 16.6318 12.9216 15.886 11.8594L13.4904 8.43541C12.8237 7.46359 12.0213 7.01158 11.1738 7.00028C10.4506 6.98898 9.6822 7.31669 8.93638 7.9721C8.84598 8.0512 8.75558 8.1303 8.66518 8.20941C7.32045 9.44113 6.74414 10.7633 6.74414 12.8199C6.74414 16.1535 8.67648 20.0859 12.4395 23.8263C16.1798 27.5441 20.0671 29.4651 23.4798 29.4651ZM23.4798 27.578C20.5982 27.6232 17.016 25.5778 13.8746 22.459C10.7105 19.3401 8.60868 15.6224 8.65388 12.7408C8.67648 11.5317 9.10589 10.4695 9.9534 9.72364C10.0438 9.65584 10.1116 9.59933 10.202 9.53153C10.5184 9.26033 10.8574 9.11342 11.1738 9.11342C11.5015 9.11342 11.7953 9.24903 12.0213 9.58803L14.1345 12.7634C14.4057 13.1476 14.417 13.5883 14.0215 13.9725L13.1175 14.8652C12.2586 15.7015 12.3378 16.6846 12.8802 17.453C13.4904 18.3005 14.6317 19.6 15.5922 20.5492C16.6205 21.5663 18.0218 22.8206 18.8354 23.4082C19.6038 23.9506 20.5869 24.0297 21.4231 23.1709L22.3158 22.2669C22.6888 21.8714 23.1295 21.8827 23.525 22.1426L26.6438 24.2218C26.9941 24.4478 27.1184 24.7303 27.1184 25.058C27.1184 25.3744 26.9715 25.7135 26.7003 26.0412C26.6325 26.1203 26.576 26.1881 26.5082 26.2785C25.7624 27.1373 24.7002 27.5667 23.4798 27.578Z" fill="#88AB8E"/>
</svg>

<svg width="36" height="36" fill="none" xmlns="http://www.w3.org/2000/svg"><path d="M23.48 29.465c1.977 0 3.322-.565 4.543-1.887.079-.09.158-.192.237-.282.666-.746.994-1.526.994-2.25 0-.847-.452-1.615-1.457-2.305l-3.368-2.35c-1.062-.734-2.294-.791-3.243.158l-.836.837c-.294.293-.577.316-.916.079-.61-.407-1.762-1.424-2.554-2.215-.802-.803-1.615-1.707-2.056-2.396-.238-.35-.215-.621.079-.915l.836-.837c.95-.949.893-2.18.147-3.243L13.49 8.435c-.666-.971-1.469-1.423-2.316-1.435-.723-.011-1.492.317-2.238.972l-.27.237c-1.346 1.232-1.922 2.554-1.922 4.61 0 3.335 1.932 7.267 5.696 11.007 3.74 3.718 7.627 5.64 11.04 5.64Zm0-1.887c-2.882.045-6.464-2-9.605-5.119-3.165-3.119-5.266-6.837-5.221-9.718.022-1.21.452-2.271 1.3-3.017.09-.068.158-.125.248-.192.316-.272.655-.419.972-.419.328 0 .621.136.847.475l2.113 3.175c.272.385.283.825-.113 1.21l-.904.892c-.858.836-.78 1.82-.237 2.588.61.848 1.752 2.147 2.712 3.096 1.028 1.017 2.43 2.272 3.243 2.86.769.542 1.752.62 2.588-.238l.893-.904c.373-.396.814-.384 1.209-.124l3.119 2.079c.35.226.474.508.474.836 0 .316-.146.655-.418.983a4.37 4.37 0 0 0-.192.238c-.746.858-1.808 1.288-3.028 1.299Z" fill="#88AB8E"/></svg>
